src/Components/LexicalTextEditor/images/icons/picture.svg

<svg width="16" height="16" fill="currentColor" class="insert-picture" viewBox="0 0 24 24" xmlns="http://www.w3.org/2000/svg">
<g clip-path="url(#clip0_3025_47882)">
<path d="M21.2868 0.751953H2.71445C1.21739 0.751953 0 1.96895 0 3.46777V20.5369C0 22.034 1.21739 23.2497 2.71445 23.2497H21.2868C22.7838 23.2497 23.9999 22.034 23.9999 20.5369V3.46777C24 1.96895 22.7839 0.751953 21.2868 0.751953ZM15.5196 4.79089C16.9673 4.79089 18.1414 5.96506 18.1414 7.41271C18.1414 8.86036 16.9673 10.0345 15.5196 10.0345C14.0715 10.0345 12.8978 8.86036 12.8978 7.41271C12.8978 5.96506 14.0715 4.79089 15.5196 4.79089ZM20.4356 20.7405H11.9998H3.9398C3.21569 20.7405 2.89321 20.2166 3.21963 19.5703L7.71916 10.6581C8.04518 10.0119 8.66653 9.95419 9.10655 10.5292L13.631 16.4419C14.071 17.017 14.8401 17.0659 15.3491 16.5507L16.456 15.4298C16.9646 14.9146 17.714 14.9784 18.1291 15.5714L20.9953 19.6655C21.4096 20.2593 21.1597 20.7405 20.4356 20.7405Z" fill="#010002"/>
</g>
<defs>
<clipPath id="clip0_3025_47882">
<rect width="24" height="24" fill="white"/>
</clipPath>
</defs>
</svg>

<svg xmlns="http://www.w3.org/2000/svg" width="16" height="16" fill="currentColor" class="insert-picture" viewBox="0 0 24 24"><g clip-path="url(#a)"><path fill="#010002" d="M21.287.752H2.714A2.717 2.717 0 0 0 0 3.468v17.069a2.716 2.716 0 0 0 2.714 2.713h18.573A2.715 2.715 0 0 0 24 20.537V3.467A2.716 2.716 0 0 0 21.287.753ZM15.52 4.791a2.622 2.622 0 1 1-.001 5.244 2.622 2.622 0 0 1 0-5.244Zm4.916 15.95H3.94c-.724 0-1.047-.524-.72-1.17l4.5-8.913c.325-.646.947-.704 1.387-.129l4.524 5.913c.44.575 1.21.624 1.718.109l1.107-1.121c.509-.515 1.258-.452 1.673.141l2.866 4.095c.415.593.165 1.075-.56 1.075Z"/></g><defs><clipPath id="a"><path fill="#fff" d="M0 0h24v24H0z"/></clipPath></defs></svg>
